assets/img/contactameImg/whatsapp.svg

<svg width="57" height="56" viewBox="0 0 57 56" fill="none" xmlns="http://www.w3.org/2000/svg">
<g clip-path="url(#clip0_1387_6622)">
<path d="M2.55012 54.8893C3.33949 54.787 4.11976 54.626 4.88411 54.4075C5.05915 54.3622 5.23379 54.3169 5.40842 54.2731C7.32419 53.7927 9.37837 53.2719 11.4211 52.7164C12.5696 52.4042 13.3615 52.5235 14.1575 53.1282C14.7012 53.542 15.3828 53.7741 16.0417 53.9989C16.1865 54.0482 16.3304 54.0978 16.4719 54.1477C20.6831 55.6545 25.0381 55.8308 29.1219 55.7925C29.607 55.8221 30.0939 55.837 30.5823 55.8368C35.4445 55.8368 40.4279 54.377 45.0852 51.5762C50.3619 48.4026 53.9258 43.8015 55.6779 37.9006C57.1033 33.0986 57.177 27.8077 55.9034 21.7257C54.3499 14.3052 50.222 8.58054 43.6345 4.70804C40.469 2.85153 37.0292 1.48559 33.4371 0.658652C30.9809 0.107401 28.4446 -0.0132513 25.9455 0.302411C22.8956 0.650284 20.056 1.54114 16.731 2.77194C9.94777 5.28264 5.17052 10.1491 2.12567 17.6498C-0.441346 23.9742 -0.3304 30.967 2.47614 39.6562C3.0142 41.3221 3.08111 42.5767 2.69969 43.8512C2.19619 45.5332 1.71271 47.2498 1.24438 48.9102C1.02244 49.6984 0.799415 50.4865 0.575324 51.2745C0.534898 51.413 0.489838 51.5515 0.444157 51.69C0.383519 51.8717 0.321688 52.0599 0.272773 52.2512C0.0601346 53.0855 0.179551 53.8111 0.609273 54.2949C1.02707 54.7649 1.71795 54.9762 2.55012 54.8893ZM5.62733 40.5567C4.54352 37.6813 4.15038 34.5546 3.77018 31.5308C3.72571 31.1774 3.68096 30.8244 3.63597 30.4714C3.12681 26.5209 3.52597 22.7877 4.82242 19.3761C7.4143 12.5538 11.6616 8.06212 17.8065 5.64324C20.2025 4.70054 23.0603 3.6862 26.091 3.31003C30.6931 2.73876 35.3329 3.76079 40.6927 6.52616C45.0385 8.76833 48.188 11.7343 50.3205 15.593C51.6759 18.0818 52.5647 20.7883 52.9447 23.5842C53.4817 27.22 53.8793 31.5389 52.7565 35.9991C51.3938 41.4149 48.3451 45.4813 43.4364 48.4299C39.3902 50.8878 34.7035 52.1461 29.9426 52.0525C27.0319 52.0106 24.4651 51.8754 22.0974 51.6388C19.9133 51.4539 17.798 50.7994 15.9023 49.7219C15.2364 49.3054 14.4654 49.0778 13.6752 49.0647C13.3059 49.0665 12.9384 49.1162 12.5823 49.2122C11.0625 49.6107 9.50391 49.9722 7.99665 50.3221C7.31427 50.4804 6.63208 50.6401 5.95011 50.8011C5.48521 50.912 5.02034 51.0265 4.45681 51.1654L3.8213 51.3218C4.0018 50.6713 4.17161 50.0444 4.33654 49.435C4.76323 47.8589 5.16646 46.3702 5.63701 44.9233C6.092 43.5257 6.26444 42.247 5.62733 40.5567Z" fill="black"/>
<path d="M10.4238 19.9236C10.8242 20.8898 11.2994 21.8248 11.8452 22.7204C15.9079 29.0067 20.4471 34.6306 25.338 39.4355C26.9206 40.9582 28.6068 42.3742 30.3849 43.6739C31.856 44.8208 33.6788 45.4493 35.5593 45.4578C36.5294 45.4509 37.4929 45.3011 38.4174 45.0138C41.1882 44.1771 43.5717 42.662 45.7345 41.1492C46.6341 40.5203 47.1457 39.7365 47.215 38.8826C47.2848 38.0203 46.8836 37.1413 46.0546 36.3415C43.4629 33.8393 40.6845 31.4507 38.068 29.2419C36.517 27.9334 35.4605 27.9136 33.7212 29.1602C33.5013 29.3185 33.288 29.4871 33.0817 29.6508C32.9153 29.7827 32.7494 29.9147 32.579 30.0412C30.9367 31.2611 30.6729 31.2554 29.0585 29.965C28.5291 29.5591 28.0574 29.0858 27.656 28.5577L27.373 28.168C26.4092 26.8897 25.512 25.5645 24.6847 24.1976C22.9791 21.2622 23.0951 20.8156 26.0626 18.8879C26.105 18.8604 26.1356 18.8185 26.1485 18.7703C26.519 17.3929 25.9148 16.4795 25.2068 15.6977C24.4171 14.8254 23.6284 13.952 22.8405 13.0777C21.9366 12.076 21.0316 11.0749 20.1261 10.0743C19.8367 9.75453 19.5197 9.45138 19.2469 9.19216C18.654 8.63097 18.0024 8.51616 17.3089 8.85197C14.982 9.97988 12.3879 11.4929 10.788 14.168C9.67411 16.0313 9.53099 17.9224 10.3621 19.789L10.4238 19.9236ZM22.647 18.1687C22.2957 18.3533 21.9697 18.5808 21.6768 18.8459C20.646 19.8686 20.2356 21.1987 20.5776 22.4036C22.1286 27.8675 24.3928 31.3608 27.9199 33.7306C29.899 35.0604 31.9269 35.0523 33.9484 33.7067C34.5703 33.2927 35.1688 32.8414 35.8027 32.3637C36.0566 32.1721 36.3175 31.9755 36.5896 31.7738L42.7935 38.2763C40.446 40.0943 38.4193 41.1037 36.246 41.5414C35.5642 41.6961 34.8541 41.6878 34.1762 41.5172C33.4985 41.3465 32.8725 41.0186 32.3514 40.5609C31.914 40.1841 31.4754 39.8081 31.0353 39.433C29.1687 37.8378 27.2384 36.1877 25.4908 34.429C21.807 30.7197 18.3648 26.4752 14.9673 21.4524C14.6186 20.9369 14.3156 20.3728 14.0223 19.8276C13.9042 19.6078 13.7862 19.3881 13.6647 19.1704C12.7828 17.5884 12.9749 16.0499 14.2198 14.7215C14.9761 13.9462 15.7746 13.2114 16.6117 12.5203C16.9711 12.2118 17.341 11.8945 17.7224 11.5572L22.9803 17.9714C22.8676 18.0403 22.756 18.106 22.647 18.1687Z" fill="black"/>
</g>
<defs>
<clipPath id="clip0_1387_6622">
<rect width="57" height="56" fill="white"/>
</clipPath>
</defs>
</svg>

<svg xmlns="http://www.w3.org/2000/svg" width="57" height="56" fill="none"><g fill="#000" clip-path="url(#a)"><path d="M2.55 54.89a16 16 0 0 0 2.334-.483l.524-.134c1.916-.48 3.97-1.001 6.013-1.557 1.149-.312 1.94-.193 2.737.412.543.414 1.225.646 1.884.87l.43.15c4.211 1.506 8.566 1.683 12.65 1.644q.728.045 1.46.045c4.862 0 9.846-1.46 14.503-4.26 5.277-3.174 8.84-7.776 10.593-13.676 1.425-4.802 1.499-10.093.225-16.175-1.553-7.42-5.681-13.145-12.268-17.018A36.2 36.2 0 0 0 33.437.658a21.8 21.8 0 0 0-7.491-.356c-3.05.348-5.89 1.24-9.215 2.47-6.783 2.51-11.56 7.377-14.605 14.878-2.567 6.324-2.456 13.317.35 22.006.538 1.666.605 2.92.224 4.195-.504 1.682-.987 3.399-1.456 5.06l-.669 2.364q-.061.207-.13.415c-.061.182-.123.37-.172.561-.213.835-.093 1.56.336 2.044.418.47 1.109.681 1.941.594m3.077-14.333C4.544 37.68 4.15 34.555 3.77 31.53l-.134-1.06c-.51-3.95-.11-7.683 1.186-11.095 2.592-6.822 6.84-11.314 12.984-13.733 2.396-.942 5.254-1.957 8.285-2.333 4.602-.571 9.242.45 14.602 3.216 4.346 2.242 7.495 5.208 9.628 9.067a23.3 23.3 0 0 1 2.624 7.991c.537 3.636.934 7.955-.188 12.415-1.363 5.416-4.412 9.482-9.32 12.43a25.06 25.06 0 0 1-13.494 3.624c-2.911-.042-5.478-.178-7.846-.414a15.1 15.1 0 0 1-6.195-1.917 4.34 4.34 0 0 0-2.227-.657 4.3 4.3 0 0 0-1.093.147c-1.52.399-3.078.76-4.585 1.11q-1.024.237-2.047.48c-.465.11-.93.224-1.493.363l-.636.157q.268-.974.516-1.887c.426-1.576.83-3.065 1.3-4.512.455-1.397.627-2.676-.01-4.366"/><path d="M10.424 19.924q.601 1.45 1.421 2.796c4.063 6.287 8.602 11.91 13.493 16.716a49 49 0 0 0 5.047 4.238 8.48 8.48 0 0 0 5.174 1.784 9.9 9.9 0 0 0 2.858-.444c2.771-.837 5.155-2.352 7.317-3.865.9-.629 1.412-1.413 1.481-2.266.07-.863-.331-1.742-1.16-2.541-2.592-2.503-5.37-4.891-7.987-7.1-1.551-1.309-2.607-1.328-4.347-.082-.22.159-.433.327-.64.49q-.248.2-.502.391c-1.642 1.22-1.906 1.214-3.52-.076a7.5 7.5 0 0 1-1.403-1.407l-.283-.39a47 47 0 0 1-2.688-3.97c-1.706-2.936-1.59-3.382 1.378-5.31a.2.2 0 0 0 .085-.118c.371-1.377-.233-2.29-.941-3.072q-1.185-1.31-2.367-2.62-1.355-1.503-2.714-3.004c-.29-.32-.606-.623-.88-.882-.592-.561-1.244-.676-1.937-.34-2.327 1.128-4.921 2.64-6.521 5.316-1.114 1.863-1.257 3.754-.426 5.621zm12.223-1.755a4.7 4.7 0 0 0-.97.677c-1.031 1.023-1.441 2.353-1.1 3.558 1.552 5.464 3.816 8.957 7.343 11.327 1.979 1.33 4.007 1.321 6.028-.024.622-.414 1.22-.866 1.855-1.343q.38-.288.787-.59l6.203 6.502c-2.347 1.818-4.374 2.828-6.547 3.265a4.45 4.45 0 0 1-2.07-.024 4.4 4.4 0 0 1-1.825-.956q-.656-.566-1.316-1.128c-1.866-1.595-3.797-3.245-5.544-5.004-3.684-3.71-7.126-7.954-10.524-12.977-.348-.515-.651-1.08-.945-1.624q-.176-.33-.357-.658c-.882-1.582-.69-3.12.555-4.449a30 30 0 0 1 2.392-2.2c.36-.31.729-.626 1.11-.964l5.258 6.414a15 15 0 0 1-.333.198"/></g><defs><clipPath id="a"><path fill="#fff" d="M0 0h57v56H0z"/></clipPath></defs></svg>
